!!!OTL: Jungfer Doertchen Es war ein Jaeger wohlgemut,
!!!ARE: Europa, Mitteleuropa, Deutschland (BRD), Hessen
!!!YOR: 3, S. 103
!!    1892 gedruckt in Neuwied
!!!SCT: Q0057V
!!!YEM: Copyright 1995, estate of Helmut Schaffrath.
**kern
*ICvox
*Ivox
*M6/8
*k[f#]
*G:
{8d
4g
8b
=1
8.dd
16ee
8dd
4cc
8dd
=2
4b}
{8d
4g
8b
=3
8.dd
16ee
8dd
4cc
8dd
=4
4b}
{8g
8.g
16ee
8ee
=5
8ee
8dd
8cc
8.b
16dd
16dd
16ee
=6
4dd}
{8b
8.a
16b
8cc
=7
8.ee
16dd
8cc
8dd
8dd
8cc
=8
4b}
{8g
8.g
16ee
8ee
=9
8ee
8dd
8cc
8.b
16dd
16dd
16ee
=10
4dd}
{8b
8.a
16b
8cc
=11
8.ee
16dd
8cc
8dd
8dd
8cc
=12
4b}
==
!!!AGN: Ballade, Todesahnung, Tod, Selbstmord
!!!ONB: ESAC (Essen Associative Code) Database: BALLADE
!!!AMT: compound duple
!!!AIN: vox
!!!EED: Helmut Schaffrath
!!!EEV: 1.0
*-
